X: 1416
T: Müptelayım Hayli
C: Kemençeci Usta Yani
O: Turkey
F: http://compmusic.upf.edu/node/140
N: mahur--sarki--aksak--muptelayim_hayli--kemenceci_usta_yani
N: makam= mahur
N: form= sarki
N: usul= aksak = 9/8
M: 9/8
L: 1/16
K: C ^9/8f   
Q: 1/4=120
%%MIDI tuningsystem comma53
g4 aggf fgfe d4 e=f | ed ^cdef defg faf2 g4  | 
w:   |   | 
z2a4c'2 bag2 a2_ba g2 | a2 f2g2 gagf feef g2fa  | 
w:   |   | 
g2z2 agg=f feed defg a2 | ag g=ffe eddc dedc _1/4B^AB2  | 
w:   |   | 
GABc d_7/8ed^c _7/8BAG2 cde2 dc | \
w:   | 
d^c _7/8Bc2B AB3/2A/G FG3 =c=Bdc2z2c2c2c4B cd_7/8ef gf | 
w:   | 
_7/8ed =edcB AGAB cd4z2d  | efga gfed2efg4z2d4gfg2d4gfg2B2c4e ddcc BBAG2d4g | 
w:   |   | 
fg2d4gfg2B2c4e  | ddcc BBAG2dcc BBAA GG | 
w:   |   | 
FE2F2G2ABA GF3/2E/D2dcc  | BBAA Gg3 fg3/2f/g af3 ef3/2e/f ge3 de3/2d/e fdef gfag2f3 ed^cd ed=cc Bcde2e | 
w:   |   | 
dd ccBB Ad3/2_7/8e/d ^c_7/8BAG2A=B=c4B AAGG FG4g3 fg3/2f/g af3 =ef3/2e/f ge3 de3/2d/e  | 
w:   | 
fdef gfag2f3 ed^cd ed | cc Bcde2edd ccBB Ad3/2_7/8e/d  | 
w:   |   | 
^c_7/8BAG2A=B=c4B AAGG FG4g4agg ffgf ed4e=fe d^cde ^9/8fdef gfaf2g4z2a4c'2bag2a2_b  | 
w:   | 
ag2a2f2g2gag ffee fg2f ag2z2agg =ffee ddef  | 
w:   | 
ga2a gg=ff eedd cded c_1/4B | ^A_1/4B2G=A=B cd_7/8ed ^c_7/8BAG2cde2dcd cBc2 BAB3/2A/ GFG3=c | 
w:   |   | 
Bd c2z2 c2c2 c4 Bcd_7/8e  | fgf_7/8e d=edc BAGA Bcd4 | 
w:   |   | 
z2 defg agfe d2ef g4  | z2|


